X:82
%%score 1 2
T:Queen Eleanor's Confession
M:C
L:1/8
K:G
V:1 clef-treble
V:2 clef-bass octave=-1
V:1
D2|[B,G]2D2[B,G]2D2|(G>A)(Bc)d2B2&B,x3x2[DG]2|c2d2(e>d)(cB)&[CG]2G>FE2E2|A6D2&F6x2|
w:Queen Eleanor* was a sick** woman,* And afraid that she* should* die, Then
V:2
z2|[G,G]2z2[G,G]2z2|[G,G]2z2z2G2|E2[B,G]2[CG]2[G,G]2|[DG]2G,2D,2z2|
V:1
G2GFE2G2&x2D2C2B,2|[DA]2F2D2D2&x6D2|G2GGA2F2&D2[B,E]2[CE]2[A,D]2|[B,DG]6||
w:she sent for two friars out of France To speak with her spee-di-ly.
V:2
z2[B,G]2[CG]2E2|[DF]2z2z2F2&x6D>C|[B,G]2E2A,2D2|G,4G2||

